docs/images/single-tenant/component-uma-icon.svg

<svg width="109" height="126" viewBox="0 0 109 126" xmlns="http://www.w3.org/2000/svg"><title>Customer Service</title><g fill="#EB4D00"><path d="M108.755 115.611c-1.184-22.4-21.4-31.667-21.4-31.667-4.83-2.249-13.587-6.651-19.328-9.562 7.356-8.014 9.528-21.081 9.866-22.94 1.535-8.412.763-18.826.763-18.826-1.404-20.249-21.933-20.567-24.083-20.545h-.196-.162c-1.95-.024-22.705.181-24.115 20.545 0 0-.774 10.412.762 18.826.099.542.36 2.051.853 4.093 3.867 5.055 9.837 7.535 14.736 8.748a3.42 3.42 0 0 1 2.385-.967h8.931c1.89 0 3.42 1.525 3.42 3.407a3.414 3.414 0 0 1-3.42 3.409h-8.931a3.423 3.423 0 0 1-3.141-2.055c-3.654-.885-7.884-2.427-11.658-5.078 1.506 3.894 3.652 8.07 6.694 11.384-5.742 2.911-14.494 7.312-19.328 9.561 0 0-20.213 9.267-21.4 31.667 0 0-.352 3.725 6.737 5.136 0 0 21.716 4.935 47.64 4.935 25.927 0 47.642-4.935 47.642-4.935 7.087-1.411 6.733-5.136 6.733-5.136"/><path d="M23.151 58.704h2.158V33.469c.005-.063.02-.124.02-.188v-3.726c0-6.643 2.059-12.027 6.12-16.004 8.4-8.231 22.748-8.119 22.991-8.085.169-.013 14.398-.217 22.836 8.008 4.088 3.984 6.163 9.394 6.163 16.081v3.94c0 .039.01.074.01.112v25.096h2.158c5.309 0 9.612-4.285 9.612-9.571v-9.2c0-4.253-2.788-7.854-6.644-9.1v-1.276c0-8.114-2.594-14.753-7.704-19.737C70.905.106 54.987.358 54.431.35 53.762.344 37.83.149 27.869 9.88c-5.093 4.977-7.678 11.597-7.678 19.675v1.271c-3.86 1.246-6.651 4.849-6.651 9.105v9.2c0 5.287 4.304 9.573 9.611 9.573"/></g></svg>

<?xml version="1.0" encoding="UTF-8"?>
<svg width="109px" height="126px" viewBox="0 0 109 126" xmlns="http://www.w3.org/2000/svg" xmlns:xlink="http://www.w3.org/1999/xlink" version="1.1">
 <!-- Generated by Pixelmator Pro 2.0.1 -->
 <g id="Onegini-Documentation">
  <g id="Onegini-Documentation---Landing-Page">
   <g id="Optional-Components">
    <g id="User-Management-Application">
     <g id="Helpdesk">
      <path id="Fill-1" d="M108.755 115.611 C107.571 93.211 87.355 83.944 87.355 83.944 82.525 81.695 73.768 77.293 68.027 74.382 75.383 66.368 77.555 53.301 77.893 51.442 79.428 43.03 78.656 32.616 78.656 32.616 77.252 12.367 56.723 12.049 54.573 12.071 54.455 12.071 54.377 12.071 54.377 12.071 54.377 12.071 54.312 12.071 54.215 12.071 52.265 12.047 31.51 12.252 30.1 32.616 30.1 32.616 29.326 43.028 30.862 51.442 30.961 51.984 31.222 53.493 31.715 55.535 35.582 60.59 41.552 63.07 46.451 64.283 47.067 63.687 47.907 63.316 48.836 63.316 L57.767 63.316 C59.657 63.316 61.187 64.841 61.187 66.723 61.187 68.606 59.657 70.132 57.767 70.132 L48.836 70.132 C47.427 70.132 46.222 69.285 45.695 68.077 42.041 67.192 37.811 65.65 34.037 62.999 35.543 66.893 37.689 71.069 40.731 74.383 34.989 77.294 26.237 81.695 21.403 83.944 21.403 83.944 1.19 93.211 0.003 115.611 0.003 115.611 -0.349 119.336 6.74 120.747 6.74 120.747 28.456 125.682 54.38 125.682 80.307 125.682 102.022 120.747 102.022 120.747 109.109 119.336 108.755 115.611 108.755 115.611" fill="#00aeef" fill-opacity="1" stroke="none"/>
      <path id="Fill-3" d="M23.151 58.704 L25.309 58.704 25.309 33.469 C25.314 33.406 25.329 33.345 25.329 33.281 L25.329 29.555 C25.329 22.912 27.388 17.528 31.449 13.551 39.849 5.32 54.197 5.432 54.44 5.466 54.609 5.453 68.838 5.249 77.276 13.474 81.364 17.458 83.439 22.868 83.439 29.555 L83.439 33.495 C83.439 33.534 83.449 33.569 83.449 33.607 L83.449 58.703 85.607 58.703 C90.916 58.703 95.219 54.418 95.219 49.132 L95.219 39.932 C95.219 35.679 92.431 32.078 88.575 30.832 L88.575 29.556 C88.575 21.442 85.981 14.803 80.871 9.819 70.905 0.106 54.987 0.358 54.431 0.35 53.762 0.344 37.83 0.149 27.869 9.88 22.776 14.857 20.191 21.477 20.191 29.555 L20.191 30.826 C16.331 32.072 13.54 35.675 13.54 39.931 L13.54 49.131 C13.54 54.418 17.844 58.704 23.151 58.704" fill="#00aeef" fill-opacity="1" stroke="none"/>
     </g>
    </g>
   </g>
  </g>
 </g>
</svg>
